;FLAVOR:Marlin
;TIME:1006
;Filament used: 0.486671m
;Layer height: 0.2
;MINX:123.903
;MINY:144.858
;MINZ:0.2
;MAXX:190.085
;MAXY:190.093
;MAXZ:7.4
;Generated with Cura_SteamEngine 4.6.1
M140 S50
M105
M190 S50
M104 S220
M105
M109 S220
M82 ;absolute extrusion mode
M201 X500.00 Y500.00 Z100.00 E5000.00 ;Setup machine max acceleration
M203 X500.00 Y500.00 Z10.00 E50.00 ;Setup machine max feedrate
M204 P500.00 R1000.00 T500.00 ;Setup Print/Retract/Travel acceleration
M205 X8.00 Y8.00 Z0.40 E5.00 ;Setup Jerk
M220 S100 ;Reset Feedrate
M221 S100 ;Reset Flowrate

G28 ;Home
M420 S1 Z2 ;Enable ABL using saved Mesh and Fade Height

G92 E0 ;Reset Extruder
G1 Z2.0 F3000 ;Move Z Axis up
G1 X10.1 Y20 Z0.28 F5000.0 ;Move to start position
G1 X10.1 Y200.0 Z0.28 F1500.0 E15 ;Draw the first line
G1 X10.4 Y200.0 Z0.28 F5000.0 ;Move to side a little
G1 X10.4 Y20 Z0.28 F1500.0 E30 ;Draw the second line
G92 E0 ;Reset Extruder
G1 Z2.0 F3000 ;Move Z Axis up

G92 E0
G92 E0
G1 F1500 E-4.1
;LAYER_COUNT:37
;LAYER:0
M107
G0 F6000 X175.994 Y145.278 Z0.2
;TYPE:SKIRT
G1 F1500 E0
G1 F1200 X176.847 Y145.365 E0.02852
G1 X177.417 Y145.448 E0.04768
G1 X178.71 Y145.723 E0.09164
G1 X179.243 Y145.873 E0.11006
G1 X180.189 Y146.19 E0.14324
G1 X180.376 Y146.263 E0.14992
G1 X180.937 Y146.498 E0.17015
G1 X181.713 Y146.87 E0.19877
G1 X182.075 Y147.063 E0.21242
G1 X182.61 Y147.37 E0.23293
G1 X182.848 Y147.516 E0.24222
G1 X183.513 Y147.961 E0.26883
G1 X183.722 Y148.113 E0.27743
G1 X184.429 Y148.677 E0.30751
G1 X184.845 Y149.04 E0.32587
G1 X185.372 Y149.533 E0.34987
G1 X185.548 Y149.71 E0.35818
G1 X185.952 Y150.14 E0.3778
G1 X186.122 Y150.332 E0.38633
G1 X186.82 Y151.215 E0.42377
G1 X187.124 Y151.646 E0.44131
G1 X187.516 Y152.245 E0.46512
G1 X187.709 Y152.564 E0.47752
G1 X188.18 Y153.435 E0.51045
G1 X188.308 Y153.702 E0.5203
G1 X188.535 Y154.211 E0.53884
G1 X188.631 Y154.443 E0.54719
G1 X188.819 Y154.932 E0.56461
G1 X188.896 Y155.149 E0.57227
G1 X189.093 Y155.767 E0.59385
G1 X189.173 Y156.048 E0.60356
G1 X189.397 Y157.01 E0.63641
G1 X189.493 Y157.536 E0.6542
G1 X189.626 Y158.543 E0.68798
G1 X189.656 Y158.913 E0.70033
G1 X189.685 Y160.009 E0.73679
G1 X189.667 Y160.685 E0.75929
G1 X189.644 Y161.156 E0.77497
G1 X189.608 Y161.646 E0.79131
G1 X189.455 Y164.24 E0.87774
G1 X189.376 Y166.78 E0.96226
G1 X189.369 Y169.28 E1.04541
G1 X189.497 Y173.225 E1.17669
G1 X189.512 Y173.501 E1.18588
G1 X189.511 Y174.628 E1.22337
G1 X189.483 Y175.123 E1.23986
G1 X189.355 Y176.254 E1.27772
G1 X189.263 Y176.796 E1.296
G1 X188.994 Y177.963 E1.33583
G1 X188.841 Y178.484 E1.35389
G1 X188.511 Y179.432 E1.38728
G1 X188.376 Y179.766 E1.39926
G1 X187.881 Y180.814 E1.43781
G1 X187.668 Y181.206 E1.45265
G1 X187.31 Y181.815 E1.47615
G1 X187.033 Y182.25 E1.4933
G1 X186.442 Y183.083 E1.52727
G1 X186.275 Y183.295 E1.53625
G1 X185.796 Y183.859 E1.56086
G1 X185.629 Y184.042 E1.5691
G1 X185.287 Y184.399 E1.58554
G1 X185.113 Y184.572 E1.5937
G1 X184.632 Y185.023 E1.61563
G1 X184.028 Y185.532 E1.6419
G1 X183.717 Y185.774 E1.65501
G1 X182.971 Y186.303 E1.68543
G1 X182.73 Y186.458 E1.69496
G1 X182.16 Y186.805 E1.71715
G1 X181.111 Y187.355 E1.75655
G1 X180.501 Y187.626 E1.77875
G1 X180.279 Y187.719 E1.78675
G1 X179.177 Y188.108 E1.82562
G1 X178.725 Y188.239 E1.84127
G1 X177.632 Y188.491 E1.87858
G1 X177.068 Y188.589 E1.89762
G1 X175.898 Y188.724 E1.93679
G1 X175.403 Y188.752 E1.95328
G1 X175.022 Y188.766 E1.96596
G1 X173.845 Y188.788 E2.00512
G1 X171.098 Y188.871 E2.09653
G1 X168.551 Y189.024 E2.18139
G1 X165.099 Y189.345 E2.2967
G1 X164.642 Y189.397 E2.312
G1 X164.022 Y189.447 E2.33269
G1 X163.518 Y189.473 E2.34947
G1 X162.779 Y189.485 E2.37405
G1 X162.493 Y189.479 E2.38357
G1 X162.014 Y189.457 E2.39952
G1 X161.266 Y189.406 E2.42445
G1 X159.663 Y189.276 E2.47795
G1 X157.131 Y189.142 E2.56228
G1 X154.591 Y189.08 E2.64678
G1 X151.929 Y189.09 E2.73532
G1 X150.676 Y189.112 E2.777
G1 X148.471 Y189.121 E2.85034
G1 X145.914 Y189.204 E2.93543
G1 X143.413 Y189.356 E3.01877
G1 X140.466 Y189.625 E3.1172
G1 X140.059 Y189.654 E3.13077
G1 X139.53 Y189.681 E3.14838
G1 X138.842 Y189.693 E3.17127
G1 X138.539 Y189.688 E3.18135
G1 X137.616 Y189.631 E3.21211
G1 X137.272 Y189.594 E3.22362
G1 X136.665 Y189.51 E3.244
G1 X136.434 Y189.471 E3.25179
G1 X135.895 Y189.365 E3.27006
G1 X135.597 Y189.298 E3.28022
G1 X134.708 Y189.055 E3.31087
G1 X134.27 Y188.914 E3.32618
G1 X133.52 Y188.64 E3.35273
G1 X133.279 Y188.541 E3.3614
G1 X132.721 Y188.292 E3.38172
G1 X132.489 Y188.18 E3.39029
G1 X131.859 Y187.848 E3.41398
G1 X131.567 Y187.681 E3.42516
G1 X130.998 Y187.33 E3.4474
G1 X130.758 Y187.171 E3.45698
G1 X130.082 Y186.683 E3.48471
G1 X129.702 Y186.379 E3.50089
G1 X129.43 Y186.154 E3.51263
G1 X128.574 Y185.36 E3.55146
G1 X128.332 Y185.108 E3.56309
G1 X127.899 Y184.633 E3.58446
G1 X127.231 Y183.802 E3.61993
G1 X126.975 Y183.447 E3.63448
G1 X126.358 Y182.482 E3.67258
G1 X126.034 Y181.906 E3.69456
G1 X125.49 Y180.782 E3.73609
G1 X125.333 Y180.4 E3.74983
G1 X125.121 Y179.846 E3.76956
G1 X124.811 Y178.849 E3.80428
G1 X124.733 Y178.544 E3.81475
G1 X124.593 Y177.915 E3.83619
G1 X124.536 Y177.614 E3.84638
G1 X124.432 Y176.939 E3.86909
G1 X124.396 Y176.641 E3.87908
G1 X124.34 Y176.022 E3.89975
G1 X124.32 Y175.685 E3.91098
G1 X124.303 Y174.98 E3.93443
G1 X124.305 Y174.779 E3.94112
G1 X124.332 Y174.129 E3.96275
G1 X124.358 Y173.777 E3.97449
G1 X124.433 Y173.085 E3.99764
G1 X124.645 Y171.599 E4.04757
G1 X124.986 Y168.949 E4.13644
G1 X125.241 Y166.4 E4.22164
G1 X125.418 Y163.913 E4.30457
G1 X125.531 Y161.303 E4.39146
G1 X125.56 Y159.824 E4.44066
G1 X125.586 Y159.266 E4.45924
G1 X125.618 Y158.837 E4.47355
G1 X125.699 Y158.106 E4.49801
G1 X125.73 Y157.896 E4.50507
G1 X125.913 Y156.962 E4.53672
G1 X126.028 Y156.492 E4.55282
G1 X126.33 Y155.485 E4.58778
G1 X126.525 Y154.939 E4.60707
G1 X126.891 Y154.05 E4.63904
G1 X127.006 Y153.804 E4.64807
G1 X127.334 Y153.162 E4.67205
G1 X127.481 Y152.898 E4.6821
G1 X127.938 Y152.154 E4.71114
G1 X128.212 Y151.748 E4.72744
G1 X128.888 Y150.856 E4.76466
G1 X129.184 Y150.507 E4.77988
G1 X129.653 Y149.992 E4.80305
G1 X129.87 Y149.769 E4.8134
G1 X130.475 Y149.196 E4.84111
G1 X130.71 Y148.991 E4.85148
G1 X131.39 Y148.446 E4.88047
G1 X131.681 Y148.233 E4.89246
G1 X132.19 Y147.884 E4.91299
G1 X132.512 Y147.677 E4.92572
G1 X133.475 Y147.13 E4.96256
G1 X133.916 Y146.91 E4.97895
G1 X135.032 Y146.433 E5.01932
G1 X135.549 Y146.248 E5.03758
G1 X136.848 Y145.879 E5.08249
G1 X137.515 Y145.736 E5.10518
G1 X138.598 Y145.564 E5.14165
G1 X138.848 Y145.538 E5.15001
G1 X140.005 Y145.484 E5.18854
G1 X140.802 Y145.492 E5.21505
G1 X141.292 Y145.508 E5.23135
G1 X143.034 Y145.614 E5.2894
G1 X145.569 Y145.721 E5.37379
G1 X148.079 Y145.756 E5.45728
G1 X149.634 Y145.73 E5.50901
G1 X151.149 Y145.723 E5.5594
G1 X152.619 Y145.758 E5.6083
G1 X153.832 Y145.808 E5.64868
G1 X156.366 Y145.84 E5.73297
G1 X158.921 Y145.8 E5.81796
G1 X161.625 Y145.68 E5.90798
G1 X162.229 Y145.644 E5.92811
G1 X163.067 Y145.629 E5.95599
G1 X163.558 Y145.64 E5.97232
G1 X166.227 Y145.662 E6.06109
G1 X168.755 Y145.612 E6.14519
G1 X171.292 Y145.489 E6.22967
G1 X173.855 Y145.295 E6.31516
G1 X174.578 Y145.257 E6.33924
G1 X175.73 Y145.262 E6.37756
G1 X175.994 Y145.278 E6.38636
G0 F6000 X176.018 Y144.878
G1 F1200 X176.904 Y144.97 E6.41598
G1 X177.474 Y145.053 E6.43514
G1 X178.819 Y145.338 E6.48087
G1 X179.352 Y145.488 E6.49929
G1 X180.335 Y145.818 E6.53377
G1 X180.522 Y145.891 E6.54045
G1 X181.094 Y146.13 E6.56107
G1 X181.901 Y146.517 E6.59084
G1 X182.263 Y146.71 E6.60448
G1 X182.819 Y147.029 E6.6258
G1 X183.057 Y147.175 E6.63509
G1 X183.749 Y147.637 E6.66276
G1 X183.958 Y147.789 E6.67136
G1 X184.692 Y148.375 E6.7026
G1 X185.108 Y148.738 E6.72096
G1 X185.656 Y149.251 E6.74593
G1 X185.832 Y149.428 E6.75423
G1 X186.251 Y149.875 E6.77461
G1 X186.421 Y150.067 E6.78313
G1 X187.147 Y150.984 E6.82204
G1 X187.451 Y151.415 E6.83958
G1 X187.858 Y152.038 E6.86433
G1 X188.051 Y152.357 E6.87673
G1 X188.54 Y153.262 E6.91094
G1 X188.668 Y153.529 E6.92079
G1 X188.905 Y154.058 E6.94007
G1 X189.001 Y154.29 E6.94842
G1 X189.196 Y154.798 E6.96652
G1 X189.273 Y155.015 E6.97418
G1 X189.478 Y155.658 E6.99663
G1 X189.558 Y155.939 E7.00634
G1 X189.791 Y156.938 E7.04046
G1 X189.887 Y157.464 E7.05825
G1 X190.024 Y158.51 E7.09333
G1 X190.054 Y158.88 E7.10568
G1 X190.085 Y160.019 E7.14358
G1 X190.067 Y160.695 E7.16607
G1 X190.043 Y161.185 E7.18239
G1 X190.01 Y161.634 E7.19736
G1 X189.854 Y164.276 E7.28539
G1 X189.776 Y166.794 E7.36917
G1 X189.769 Y169.297 E7.45243
G1 X189.894 Y173.146 E7.58051
G1 X189.912 Y173.48 E7.59164
G1 X189.91 Y174.651 E7.63058
G1 X189.882 Y175.146 E7.64707
G1 X189.75 Y176.321 E7.6864
G1 X189.658 Y176.863 E7.70469
G1 X189.378 Y178.076 E7.74609
G1 X189.225 Y178.597 E7.76415
G1 X188.882 Y179.582 E7.79884
G1 X188.747 Y179.916 E7.81082
G1 X188.233 Y181.005 E7.85088
G1 X188.02 Y181.397 E7.86571
G1 X187.647 Y182.03 E7.89015
G1 X187.37 Y182.465 E7.9073
G1 X186.756 Y183.33 E7.94258
G1 X186.589 Y183.542 E7.95156
G1 X186.092 Y184.128 E7.97712
G1 X185.925 Y184.311 E7.98536
G1 X185.569 Y184.683 E8.00248
G1 X185.395 Y184.856 E8.01064
G1 X184.902 Y185.319 E8.03314
G1 X184.274 Y185.848 E8.06045
G1 X183.963 Y186.09 E8.07356
G1 X183.187 Y186.639 E8.10517
G1 X182.946 Y186.794 E8.1147
G1 X182.666 Y186.968 E8.12567
G1 X182.366 Y187.148 E8.1373
G1 X181.276 Y187.719 E8.17823
G1 X180.656 Y187.995 E8.2008
G1 X180.434 Y188.088 E8.20881
G1 X179.289 Y188.492 E8.24919
G1 X178.837 Y188.623 E8.26484
G1 X177.701 Y188.886 E8.30363
G1 X177.137 Y188.984 E8.32267
G1 X175.921 Y189.123 E8.36337
G1 X175.426 Y189.151 E8.37986
G1 X175.029 Y189.166 E8.39308
G1 X173.863 Y189.188 E8.43187
G1 X171.102 Y189.271 E8.52374
G1 X168.582 Y189.422 E8.6077
G1 X165.131 Y189.744 E8.72298
G1 X164.687 Y189.794 E8.73784
G1 X164.043 Y189.847 E8.75934
G1 X163.539 Y189.873 E8.77612
G1 X162.771 Y189.885 E8.80167
G1 X162.485 Y189.879 E8.81118
G1 X161.987 Y189.857 E8.82776
G1 X161.233 Y189.804 E8.8529
G1 X159.645 Y189.675 E8.90589
G1 X157.134 Y189.543 E8.98953
G1 X154.583 Y189.48 E9.0744
G1 X151.938 Y189.49 E9.16237
G1 X150.678 Y189.512 E9.20429
G1 X148.486 Y189.521 E9.27719
G1 X145.916 Y189.604 E9.36272
G1 X143.441 Y189.755 E9.44519
G1 X140.502 Y190.023 E9.54334
G1 X140.079 Y190.053 E9.55745
G1 X139.55 Y190.08 E9.57507
G1 X138.835 Y190.093 E9.59885
G1 X138.532 Y190.088 E9.60893
G1 X137.573 Y190.028 E9.64089
G1 X137.229 Y189.991 E9.6524
G1 X136.598 Y189.904 E9.67358
G1 X136.367 Y189.865 E9.68137
G1 X135.807 Y189.755 E9.70036
G1 X135.509 Y189.688 E9.71052
G1 X134.586 Y189.436 E9.74234
G1 X134.148 Y189.295 E9.75764
G1 X133.368 Y189.01 E9.78526
G1 X133.127 Y188.911 E9.79393
G1 X132.547 Y188.652 E9.81506
G1 X132.315 Y188.54 E9.82362
G1 X131.661 Y188.195 E9.84822
G1 X131.369 Y188.028 E9.8594
G1 X130.777 Y187.664 E9.88252
G1 X130.537 Y187.505 E9.89209
G1 X129.834 Y186.997 E9.92094
G1 X129.447 Y186.688 E9.93741
G1 X129.175 Y186.463 E9.94915
G1 X128.286 Y185.637 E9.98952
G1 X128.044 Y185.385 E10.00114
G1 X127.785 Y185.107 E10.01377
G1 X127.6 Y184.9 E10.02301
G1 X126.906 Y184.036 E10.05987
G1 X126.65 Y183.681 E10.07442
G1 X126.009 Y182.678 E10.11401
G1 X125.685 Y182.102 E10.13599
G1 X125.12 Y180.934 E10.17915
G1 X124.963 Y180.552 E10.19289
G1 X124.746 Y179.984 E10.21311
G1 X124.424 Y178.948 E10.24919
G1 X124.346 Y178.643 E10.25966
G1 X124.2 Y177.989 E10.28195
G1 X124.143 Y177.688 E10.29214
G1 X124.035 Y176.987 E10.31573
G1 X123.999 Y176.689 E10.32571
G1 X123.941 Y176.046 E10.34719
G1 X123.921 Y175.709 E10.35842
G1 X123.903 Y174.976 E10.3828
G1 X123.905 Y174.775 E10.38949
G1 X123.933 Y174.099 E10.41199
G1 X123.959 Y173.747 E10.42373
G1 X124.037 Y173.028 E10.44779
G1 X124.257 Y171.488 E10.49953
G1 X124.586 Y168.929 E10.58534
G1 X124.842 Y166.367 E10.67098
G1 X125.02 Y163.866 E10.75437
G1 X125.13 Y161.321 E10.8391
G1 X125.16 Y159.816 E10.88916
G1 X125.187 Y159.237 E10.90844
G1 X125.219 Y158.808 E10.92275
G1 X125.304 Y158.048 E10.94818
G1 X125.335 Y157.838 E10.95525
G1 X125.525 Y156.867 E10.98815
G1 X125.64 Y156.397 E11.00425
G1 X125.954 Y155.351 E11.04057
G1 X126.149 Y154.805 E11.05985
G1 X126.528 Y153.881 E11.09307
G1 X126.643 Y153.635 E11.1021
G1 X126.985 Y152.967 E11.12706
G1 X127.132 Y152.703 E11.13711
G1 X127.607 Y151.93 E11.16729
G1 X127.881 Y151.524 E11.18358
G1 X128.583 Y150.598 E11.22223
G1 X128.879 Y150.249 E11.23745
G1 X129.366 Y149.713 E11.26154
G1 X129.583 Y149.49 E11.27189
G1 X130.212 Y148.894 E11.30071
G1 X130.447 Y148.689 E11.31108
G1 X131.154 Y148.124 E11.34118
G1 X131.445 Y147.911 E11.35317
G1 X131.974 Y147.548 E11.37451
G1 X132.296 Y147.341 E11.38724
G1 X133.296 Y146.772 E11.42551
G1 X133.737 Y146.552 E11.4419
G1 X134.898 Y146.057 E11.48388
G1 X135.415 Y145.872 E11.50215
G1 X136.294 Y145.599 E11.53276
G1 X136.764 Y145.488 E11.54882
G1 X137.431 Y145.345 E11.57151
G1 X138.557 Y145.166 E11.60943
G1 X138.807 Y145.14 E11.61779
G1 X140.009 Y145.084 E11.65781
G1 X140.806 Y145.092 E11.68432
G1 X141.315 Y145.109 E11.70126
G1 X143.043 Y145.214 E11.75884
G1 X145.592 Y145.321 E11.8437
G1 X148.11 Y145.356 E11.92745
G1 X149.631 Y145.33 E11.97805
G1 X150.847 Y145.321 E12.01849
G1 X151.158 Y145.324 E12.02884
G1 X152.635 Y145.358 E12.07798
G1 X153.853 Y145.408 E12.11852
G1 X156.365 Y145.44 E12.20208
G1 X158.898 Y145.4 E12.28634
G1 X161.647 Y145.278 E12.37786
G1 X162.205 Y145.245 E12.39645
G1 X163.076 Y145.229 E12.42542
G1 X163.571 Y145.24 E12.44189
G1 X166.222 Y145.262 E12.53007
G1 X168.727 Y145.212 E12.6134
G1 X171.278 Y145.089 E12.69835
G1 X173.834 Y144.896 E12.7836
G1 X174.557 Y144.858 E12.80768
G1 X175.754 Y144.862 E12.84749
G1 X176.018 Y144.878 E12.85629
G1 F1500 E8.75629
;MESH:Wheel2.stl(2)
G0 F6000 X148.885 Y155.778
G0 X148.614 Y155.956
G0 X141.139 Y158.979
G0 X141.854 Y157.701
G0 X140.065 Y157.586
G0 X139.245 Y157.782
G0 X138.025 Y158.544
;TYPE:WALL-INNER
G1 F1500 E12.85629
G1 F1200 X137.822 Y158.878 E12.86929
G1 X137.652 Y159.267 E12.88341
G1 X137.544 Y159.685 E12.89777
G1 X137.503 Y160.092 E12.91138
G1 X137.502 Y160.236 E12.91616
G1 X137.536 Y160.62 E12.92899
G1 X137.632 Y161.01 E12.94235
G1 X137.805 Y161.426 E12.95733
G1 X138.033 Y161.793 E12.9717
G1 X138.114 Y161.898 E12.97611
G1 X138.372 Y162.18 E12.98882
G1 X138.624 Y162.385 E12.99963
G1 X138.738 Y162.465 E13.00426
G1 X138.995 Y162.615 E13.01416
G1 X139.151 Y162.689 E13.0199
G1 X139.365 Y162.77 E13.02751
G1 X139.553 Y162.828 E13.03405
G1 X139.788 Y162.879 E13.04205
G1 X140 Y162.906 E13.04916
G1 X140.221 Y162.916 E13.05652
G1 X140.472 Y162.909 E13.06487
G1 X140.679 Y162.884 E13.07181
G1 X140.89 Y162.843 E13.07895
G1 X141.082 Y162.79 E13.08558
G1 X141.344 Y162.691 E13.09489
G1 X141.487 Y162.626 E13.10012
G1 X141.716 Y162.494 E13.10891
G1 X141.857 Y162.4 E13.11455
G1 X142.074 Y162.225 E13.12382
G1 X142.194 Y162.115 E13.12923
G1 X142.475 Y161.791 E13.1435
G1 X142.678 Y161.458 E13.15647
G1 X142.848 Y161.07 E13.17056
G1 X142.957 Y160.651 E13.18496
G1 X142.997 Y160.242 E13.19863
G1 X142.998 Y160.1 E13.20335
G1 X142.964 Y159.716 E13.21617
G1 X142.872 Y159.342 E13.22898
G1 X142.825 Y159.209 E13.23367
G1 X142.67 Y158.857 E13.24647
G1 X142.422 Y158.478 E13.26153
G1 X142.129 Y158.159 E13.27594
G1 X141.904 Y157.971 E13.28569
G1 X141.75 Y157.862 E13.29196
G1 X141.536 Y157.738 E13.30019
G1 X141.369 Y157.656 E13.30638
G1 X141.139 Y157.567 E13.31458
G1 X140.948 Y157.506 E13.32125
G1 X140.71 Y157.457 E13.32933
G1 X140.502 Y157.43 E13.33631
G1 X140.279 Y157.419 E13.34373
G1 X140.053 Y157.426 E13.35125
G1 X139.847 Y157.448 E13.35814
G1 X139.611 Y157.492 E13.36613
G1 X139.417 Y157.546 E13.37283
G1 X139.184 Y157.633 E13.3811
G1 X139.014 Y157.71 E13.38731
G1 X138.784 Y157.842 E13.39613
G1 X138.643 Y157.936 E13.40176
G1 X138.428 Y158.109 E13.41094
G1 X138.308 Y158.218 E13.41633
G1 X138.025 Y158.544 E13.43069
G0 F6000 X138.349 Y158.781
;TYPE:WALL-OUTER
G1 F1200 X138.178 Y159.063 E13.44188
G1 X138.031 Y159.398 E13.45429
G1 X137.939 Y159.755 E13.4668
G1 X137.903 Y160.114 E13.47904
G1 X137.902 Y160.22 E13.48263
G1 X137.932 Y160.554 E13.49401
G1 X138.013 Y160.885 E13.50557
G1 X138.162 Y161.242 E13.5187
G1 X138.363 Y161.565 E13.5316
G1 X138.421 Y161.641 E13.53485
G1 X138.647 Y161.888 E13.5462
