;FLAVOR:Marlin
;TIME:1794
;Filament used: 0.898429m
;Layer height: 0.2
;MINX:113.294
;MINY:133.775
;MINZ:0.2
;MAXX:239.218
;MAXY:200.14
;MAXZ:7.4
;Generated with Cura_SteamEngine 4.6.1
M140 S50
M105
M190 S50
M104 S220
M105
M109 S220
M82 ;absolute extrusion mode
M201 X500.00 Y500.00 Z100.00 E5000.00 ;Setup machine max acceleration
M203 X500.00 Y500.00 Z10.00 E50.00 ;Setup machine max feedrate
M204 P500.00 R1000.00 T500.00 ;Setup Print/Retract/Travel acceleration
M205 X8.00 Y8.00 Z0.40 E5.00 ;Setup Jerk
M220 S100 ;Reset Feedrate
M221 S100 ;Reset Flowrate

G28 ;Home
M420 S1 Z2 ;Enable ABL using saved Mesh and Fade Height

G92 E0 ;Reset Extruder
G1 Z2.0 F3000 ;Move Z Axis up
G1 X10.1 Y20 Z0.28 F5000.0 ;Move to start position
G1 X10.1 Y200.0 Z0.28 F1500.0 E15 ;Draw the first line
G1 X10.4 Y200.0 Z0.28 F5000.0 ;Move to side a little
G1 X10.4 Y20 Z0.28 F1500.0 E30 ;Draw the second line
G92 E0 ;Reset Extruder
G1 Z2.0 F3000 ;Move Z Axis up

G92 E0
G92 E0
G1 F1500 E-4.1
;LAYER_COUNT:37
;LAYER:0
M107
G0 F6000 X207.663 Y133.816 Z0.2
;TYPE:SKIRT
G1 F1500 E0
G1 F1200 X209.213 Y133.934 E0.0517
G1 X209.917 Y133.999 E0.07522
G1 X210.456 Y134.063 E0.09327
G1 X211.268 Y134.195 E0.12063
G1 X212.596 Y134.438 E0.16553
G1 X213.285 Y134.574 E0.18889
G1 X213.818 Y134.694 E0.20706
G1 X214.263 Y134.81 E0.22236
G1 X214.683 Y134.928 E0.23687
G1 X215.848 Y135.269 E0.27724
G1 X216.565 Y135.488 E0.30218
G1 X217.136 Y135.681 E0.32223
G1 X217.693 Y135.893 E0.34205
G1 X219.14 Y136.481 E0.394
G1 X219.739 Y136.735 E0.41564
G1 X220.231 Y136.96 E0.43363
G1 X220.483 Y137.083 E0.44296
G1 X220.791 Y137.24 E0.45446
G1 X222.189 Y137.983 E0.50711
G1 X222.792 Y138.316 E0.53002
G1 X223.271 Y138.598 E0.54851
G1 X223.666 Y138.848 E0.56406
G1 X224.032 Y139.09 E0.57865
G1 X225.013 Y139.751 E0.618
G1 X225.654 Y140.195 E0.64393
G1 X226.249 Y140.64 E0.66864
G1 X226.757 Y141.052 E0.6904
G1 X227.761 Y141.891 E0.73392
G1 X228.273 Y142.33 E0.75635
G1 X228.708 Y142.724 E0.77587
G1 X228.922 Y142.93 E0.78575
G1 X229.145 Y143.152 E0.79621
G1 X230.262 Y144.298 E0.84944
G1 X230.694 Y144.755 E0.87036
G1 X231.057 Y145.16 E0.88845
G1 X231.282 Y145.425 E0.90001
G1 X231.503 Y145.695 E0.91161
G1 X232.392 Y146.818 E0.95925
G1 X232.844 Y147.405 E0.98389
G1 X233.187 Y147.878 E1.00333
G1 X233.662 Y148.593 E1.03188
G1 X234.354 Y149.684 E1.07485
G1 X234.726 Y150.289 E1.09847
G1 X235.074 Y150.898 E1.1218
G1 X235.257 Y151.246 E1.13488
G1 X235.972 Y152.673 E1.18796
G1 X236.282 Y153.316 E1.2117
G1 X236.514 Y153.834 E1.23058
G1 X236.735 Y154.379 E1.25014
G1 X237.289 Y155.844 E1.30224
G1 X237.516 Y156.471 E1.32441
G1 X237.693 Y157.005 E1.34313
G1 X237.77 Y157.261 E1.35202
G1 X237.863 Y157.591 E1.36342
G1 X238.259 Y159.091 E1.41502
G1 X238.43 Y159.774 E1.43844
G1 X238.562 Y160.383 E1.45916
G1 X238.661 Y160.938 E1.47791
G1 X238.903 Y162.49 E1.53016
G1 X238.998 Y163.164 E1.5528
G1 X239.064 Y163.751 E1.57244
G1 X239.105 Y164.305 E1.59092
G1 X239.185 Y165.834 E1.64184
G1 X239.213 Y166.565 E1.66618
G1 X239.218 Y167.148 E1.68557
G1 X239.202 Y167.737 E1.70516
G1 X239.124 Y169.258 E1.75582
G1 X239.077 Y169.981 E1.77992
G1 X239.02 Y170.579 E1.7999
G1 X238.946 Y171.137 E1.81862
G1 X238.717 Y172.618 E1.86846
G1 X238.592 Y173.359 E1.89346
G1 X238.472 Y173.96 E1.91384
G1 X238.326 Y174.57 E1.9347
G1 X237.935 Y176.046 E1.98549
G1 X237.765 Y176.655 E2.00652
G1 X237.621 Y177.127 E2.02293
G1 X237.535 Y177.386 E2.03201
G1 X237.404 Y177.759 E2.04516
G1 X236.842 Y179.25 E2.09815
G1 X236.591 Y179.887 E2.12092
G1 X236.389 Y180.363 E2.13812
G1 X236.271 Y180.623 E2.14762
G1 X236.112 Y180.958 E2.15995
G1 X235.437 Y182.311 E2.21024
G1 X235.114 Y182.938 E2.2337
G1 X234.819 Y183.471 E2.25396
G1 X234.596 Y183.842 E2.26836
G1 X234.312 Y184.296 E2.28617
G1 X233.665 Y185.312 E2.32623
G1 X233.307 Y185.858 E2.34795
G1 X232.943 Y186.377 E2.36903
G1 X232.711 Y186.684 E2.38183
G1 X232.364 Y187.13 E2.40063
G1 X231.658 Y188.022 E2.43846
G1 X231.201 Y188.582 E2.4625
G1 X230.838 Y189.002 E2.48097
G1 X230.272 Y189.607 E2.50852
G1 X229.379 Y190.521 E2.55102
G1 X228.842 Y191.056 E2.57624
G1 X228.413 Y191.46 E2.59584
G1 X227.975 Y191.842 E2.61517
G1 X226.823 Y192.805 E2.66511
G1 X226.261 Y193.261 E2.68918
G1 X225.703 Y193.682 E2.71243
G1 X225.134 Y194.08 E2.73552
G1 X224.042 Y194.814 E2.77928
G1 X223.429 Y195.214 E2.80363
G1 X222.944 Y195.512 E2.82256
G1 X222.746 Y195.626 E2.83016
G1 X222.467 Y195.78 E2.84076
G1 X221.062 Y196.53 E2.89373
G1 X220.434 Y196.852 E2.9172
G1 X219.916 Y197.1 E2.93631
G1 X219.369 Y197.338 E2.95615
G1 X217.95 Y197.916 E3.00711
G1 X217.283 Y198.176 E3.03092
G1 X216.624 Y198.407 E3.05414
G1 X215.988 Y198.604 E3.07629
G1 X214.699 Y198.978 E3.12093
G1 X214.023 Y199.164 E3.14425
G1 X213.487 Y199.296 E3.16261
G1 X213.216 Y199.355 E3.17183
G1 X212.887 Y199.42 E3.18299
G1 X211.349 Y199.702 E3.235
G1 X210.675 Y199.815 E3.25773
G1 X210.151 Y199.888 E3.27532
G1 X209.907 Y199.916 E3.28349
G1 X209.537 Y199.952 E3.29586
G1 X207.991 Y200.072 E3.34743
G1 X207.265 Y200.118 E3.37163
G1 X206.698 Y200.138 E3.3905
G1 X206.435 Y200.14 E3.39924
G1 X206.105 Y200.137 E3.41022
G1 X204.529 Y200.097 E3.46265
G1 X203.86 Y200.07 E3.48492
G1 X203.321 Y200.034 E3.50289
G1 X202.48 Y199.942 E3.53103
G1 X201.166 Y199.771 E3.5751
G1 X200.446 Y199.667 E3.5993
G1 X199.777 Y199.548 E3.6219
G1 X199.103 Y199.402 E3.64483
G1 X197.829 Y199.099 E3.68839
G1 X197.114 Y198.919 E3.71291
G1 X196.596 Y198.774 E3.7308
G1 X195.79 Y198.513 E3.75898
G1 X194.525 Y198.071 E3.80355
G1 X193.901 Y197.845 E3.82562
G1 X193.325 Y197.617 E3.84623
G1 X192.752 Y197.362 E3.86709
G1 X190.392 Y196.324 E3.95284
G1 X188.035 Y195.364 E4.03749
G1 X185.647 Y194.471 E4.12228
G1 X183.242 Y193.648 E4.20683
G1 X180.821 Y192.896 E4.29115
G1 X178.372 Y192.21 E4.37574
G1 X175.881 Y191.586 E4.46115
G1 X173.419 Y191.046 E4.54498
G1 X170.924 Y190.571 E4.62945
G1 X168.444 Y190.17 E4.71301
G1 X165.886 Y189.832 E4.79883
G1 X163.389 Y189.573 E4.88233
G1 X159.675 Y189.277 E5.00625
G1 X157.131 Y189.142 E5.09098
G1 X154.59 Y189.08 E5.17552
G1 X151.929 Y189.09 E5.26402
G1 X150.676 Y189.112 E5.3057
G1 X148.471 Y189.121 E5.37904
G1 X145.912 Y189.204 E5.4642
G1 X143.414 Y189.356 E5.54744
G1 X140.466 Y189.625 E5.6459
G1 X140.06 Y189.654 E5.65943
G1 X139.532 Y189.681 E5.67702
G1 X138.843 Y189.693 E5.69994
G1 X138.539 Y189.688 E5.71005
G1 X137.616 Y189.631 E5.74081
G1 X136.982 Y189.558 E5.76204
G1 X134.221 Y189.181 E5.85472
G1 X131.705 Y188.91 E5.93889
G1 X129.175 Y188.71 E6.0233
G1 X127.367 Y188.613 E6.08352
G1 X126.885 Y188.58 E6.09959
G1 X126.383 Y188.533 E6.11636
G1 X126.138 Y188.504 E6.12456
G1 X125.499 Y188.408 E6.14605
G1 X125.166 Y188.347 E6.15731
G1 X124.615 Y188.23 E6.17605
G1 X124.395 Y188.177 E6.18357
G1 X123.364 Y187.87 E6.21935
G1 X122.715 Y187.639 E6.24227
G1 X121.685 Y187.208 E6.2794
G1 X121.421 Y187.08 E6.28916
G1 X120.752 Y186.725 E6.31435
G1 X120.49 Y186.573 E6.32442
G1 X119.984 Y186.258 E6.34425
G1 X119.742 Y186.098 E6.3539
G1 X119.058 Y185.605 E6.38194
G1 X118.678 Y185.301 E6.39813
G1 X118.406 Y185.076 E6.40987
G1 X117.55 Y184.282 E6.4487
G1 X117.308 Y184.03 E6.46032
G1 X116.875 Y183.555 E6.4817
G1 X116.212 Y182.731 E6.51687
G1 X115.957 Y182.378 E6.53136
G1 X115.337 Y181.409 E6.56962
G1 X115.011 Y180.83 E6.59172
G1 X114.454 Y179.676 E6.63434
G1 X114.123 Y178.839 E6.66428
G1 X113.805 Y177.835 E6.6993
G1 X113.717 Y177.498 E6.71089
G1 X113.556 Y176.773 E6.73559
G1 X113.508 Y176.513 E6.74438
G1 X113.414 Y175.903 E6.76491
G1 X113.374 Y175.577 E6.77584
G1 X113.316 Y174.943 E6.79701
G1 X113.296 Y174.608 E6.80817
G1 X113.294 Y173.428 E6.84742
G1 X113.335 Y172.698 E6.87174
G1 X113.379 Y172.167 E6.88946
G1 X113.47 Y171.331 E6.91743
G1 X113.711 Y168.763 E7.00322
G1 X113.877 Y166.224 E7.08784
G1 X113.97 Y163.71 E7.17152
G1 X113.987 Y159.881 E7.29887
G1 X114.014 Y159.236 E7.32034
G1 X114.057 Y158.653 E7.33979
G1 X114.171 Y157.706 E7.37151
G1 X114.212 Y157.463 E7.37971
G1 X114.393 Y156.614 E7.40858
G1 X114.492 Y156.23 E7.42177
G1 X114.763 Y155.345 E7.45255
G1 X114.958 Y154.799 E7.47184
G1 X115.324 Y153.91 E7.50381
G1 X115.439 Y153.664 E7.51285
G1 X115.767 Y153.022 E7.53682
G1 X115.914 Y152.758 E7.54687
G1 X116.371 Y152.014 E7.57592
G1 X116.645 Y151.608 E7.59221
G1 X117.321 Y150.716 E7.62943
G1 X117.617 Y150.367 E7.64465
G1 X118.086 Y149.852 E7.66782
G1 X118.303 Y149.629 E7.67817
G1 X118.908 Y149.056 E7.70588
G1 X119.143 Y148.851 E7.71626
G1 X119.823 Y148.306 E7.74524
G1 X120.114 Y148.093 E7.75723
G1 X120.623 Y147.744 E7.77776
G1 X120.917 Y147.555 E7.78939
G1 X121.881 Y147.007 E7.82627
G1 X122.246 Y146.825 E7.83983
G1 X122.876 Y146.537 E7.86287
G1 X123.301 Y146.36 E7.87818
G1 X124.075 Y146.074 E7.90563
G1 X124.337 Y145.989 E7.91479
G1 X125.083 Y145.778 E7.94058
G1 X125.376 Y145.707 E7.9506
G1 X126.087 Y145.561 E7.97474
G1 X126.325 Y145.521 E7.98277
G1 X127.093 Y145.422 E8.00853
G1 X127.588 Y145.377 E8.02506
G1 X128.732 Y145.337 E8.06313
G1 X129.286 Y145.349 E8.08156
G1 X129.635 Y145.363 E8.09318
G1 X130.665 Y145.421 E8.12749
G1 X133.254 Y145.528 E8.21368
G1 X135.784 Y145.561 E8.29783
G1 X139.036 Y145.5 E8.40601
G1 X139.607 Y145.48 E8.42501
G1 X140.207 Y145.477 E8.44497
G1 X140.937 Y145.494 E8.46926
G1 X141.292 Y145.508 E8.48107
G1 X143.034 Y145.614 E8.53912
G1 X145.569 Y145.721 E8.62351
G1 X148.079 Y145.756 E8.707
G1 X149.626 Y145.73 E8.75846
G1 X151.026 Y145.72 E8.80503
G1 X153.676 Y145.742 E8.89317
G1 X156.208 Y145.691 E8.9774
G1 X158.749 Y145.568 E9.06201
G1 X161.251 Y145.376 E9.14548
G1 X163.8 Y145.107 E9.23073
G1 X166.33 Y144.768 E9.31563
G1 X168.842 Y144.358 E9.40028
G1 X171.309 Y143.885 E9.48383
G1 X173.758 Y143.342 E9.56726
G1 X176.284 Y142.707 E9.65389
G1 X178.683 Y142.03 E9.7368
G1 X181.147 Y141.261 E9.82265
G1 X183.521 Y140.444 E9.90615
G1 X185.894 Y139.552 E9.99047
G1 X188.272 Y138.581 E10.0759
G1 X191.244 Y137.254 E10.18416
G1 X192.583 Y136.629 E10.23331
G1 X193.185 Y136.358 E10.25526
G1 X193.814 Y136.1 E10.27788
G1 X194.462 Y135.861 E10.30085
G1 X195.752 Y135.414 E10.34626
G1 X196.388 Y135.203 E10.36854
G1 X196.926 Y135.041 E10.38723
G1 X197.191 Y134.969 E10.39637
G1 X197.514 Y134.887 E10.40745
G1 X199.036 Y134.527 E10.45947
G1 X199.679 Y134.384 E10.48138
G1 X200.384 Y134.253 E10.50523
G1 X201.091 Y134.149 E10.52899
G1 X202.374 Y133.984 E10.57202
G1 X203.098 Y133.901 E10.59626
G1 X203.772 Y133.847 E10.61875
G1 X204.453 Y133.816 E10.64142
G1 X205.836 Y133.782 E10.68743
G1 X206.496 Y133.775 E10.70939
G1 X207.058 Y133.784 E10.72808
G1 X207.663 Y133.816 E10.74823
G1 F1500 E6.64823
;MESH:Wheel2.stl(3)
G0 F6000 X138.207 Y155.414
G0 X137.486 Y155.796
G0 X136.592 Y156.51
G0 X135.85 Y157.446
G0 X135.549 Y158.008
G0 X135.369 Y158.5
G0 X130.141 Y160.287
G0 X131.578 Y160.545
G0 X130.908 Y161.652
;TYPE:WALL-INNER
G1 F1500 E10.74823
G1 F1200 X131.111 Y161.318 E10.76123
G1 X131.281 Y160.93 E10.77532
G1 X131.39 Y160.511 E10.78972
G1 X131.43 Y160.102 E10.80339
G1 X131.431 Y159.96 E10.80811
G1 X131.397 Y159.576 E10.82093
G1 X131.305 Y159.203 E10.83371
G1 X131.258 Y159.07 E10.8384
G1 X131.103 Y158.718 E10.85119
G1 X130.856 Y158.34 E10.86621
G1 X130.564 Y158.019 E10.88065
G1 X130.336 Y157.831 E10.89047
G1 X130.183 Y157.722 E10.89672
G1 X129.969 Y157.598 E10.90495
G1 X129.802 Y157.516 E10.91114
G1 X129.572 Y157.427 E10.91934
G1 X129.381 Y157.366 E10.92601
G1 X129.143 Y157.317 E10.93409
G1 X128.933 Y157.29 E10.94113
G1 X128.712 Y157.28 E10.94849
G1 X128.488 Y157.286 E10.95594
G1 X128.28 Y157.308 E10.9629
G1 X128.044 Y157.352 E10.97088
G1 X127.85 Y157.406 E10.97758
G1 X127.616 Y157.493 E10.98589
G1 X127.448 Y157.57 E10.99203
G1 X127.217 Y157.702 E11.00088
G1 X127.076 Y157.796 E11.00652
G1 X126.859 Y157.971 E11.01579
G1 X126.739 Y158.081 E11.0212
G1 X126.458 Y158.405 E11.03547
G1 X126.255 Y158.738 E11.04844
G1 X126.085 Y159.126 E11.06253
G1 X125.976 Y159.545 E11.07693
G1 X125.936 Y159.954 E11.0906
G1 X125.935 Y160.096 E11.09532
G1 X125.969 Y160.48 E11.10814
G1 X126.065 Y160.87 E11.1215
G1 X126.238 Y161.287 E11.13652
G1 X126.465 Y161.65 E11.15076
G1 X126.545 Y161.757 E11.1552
G1 X126.805 Y162.04 E11.16798
G1 X127.057 Y162.245 E11.17879
G1 X127.171 Y162.325 E11.18342
G1 X127.428 Y162.475 E11.19332
G1 X127.583 Y162.549 E11.19903
G1 X127.796 Y162.63 E11.20661
G1 X127.985 Y162.69 E11.2132
G1 X128.223 Y162.739 E11.22129
G1 X128.431 Y162.766 E11.22826
G1 X128.654 Y162.777 E11.23569
G1 X128.905 Y162.769 E11.24404
G1 X129.111 Y162.744 E11.25094
G1 X129.324 Y162.704 E11.25815
G1 X129.517 Y162.649 E11.26482
G1 X129.777 Y162.551 E11.27407
G1 X129.92 Y162.486 E11.27929
G1 X130.149 Y162.354 E11.28808
G1 X130.29 Y162.26 E11.29372
G1 X130.505 Y162.087 E11.3029
G1 X130.625 Y161.978 E11.30829
G1 X130.908 Y161.652 E11.32265
G0 F6000 X130.584 Y161.415
;TYPE:WALL-OUTER
G1 F1200 X130.755 Y161.133 E11.33384
G1 X130.902 Y160.798 E11.34625
G1 X130.995 Y160.441 E11.35876
G1 X131.03 Y160.081 E11.37103
G1 X131.031 Y159.976 E11.3746
G1 X131.001 Y159.642 E11.38597
G1 X130.921 Y159.317 E11.39733
G1 X130.886 Y159.217 E11.40092
G1 X130.75 Y158.91 E11.41231
G1 X130.538 Y158.585 E11.42548
G1 X130.287 Y158.309 E11.43813
G1 X130.093 Y158.149 E11.44666
G1 X129.966 Y158.059 E11.45194
G1 X129.78 Y157.951 E11.45924
G1 X129.641 Y157.883 E11.46449
G1 X129.439 Y157.804 E11.47185
G1 X129.28 Y157.754 E11.4775
G1 X129.077 Y157.712 E11.48454
G1 X128.898 Y157.689 E11.49066
G1 X128.708 Y157.68 E11.49711
G1 X128.515 Y157.685 E11.50366
G1 X128.338 Y157.704 E11.5097
G1 X128.135 Y157.742 E11.51671
G1 X127.974 Y157.787 E11.52238
G1 X127.769 Y157.863 E11.5298
G1 X127.631 Y157.926 E11.53494
G1 X127.428 Y158.042 E11.54287
G1 X127.313 Y158.119 E11.54757
G1 X127.12 Y158.274 E11.55597
G1 X127.027 Y158.36 E11.56026
G1 X126.782 Y158.642 E11.57294
G1 X126.611 Y158.923 E11.5841
G1 X126.464 Y159.258 E11.59651
G1 X126.371 Y159.615 E11.60902
G1 X126.336 Y159.975 E11.62129
G1 X126.335 Y160.08 E11.62486
G1 X126.365 Y160.414 E11.63623
G1 X126.446 Y160.745 E11.64779
G1 X126.595 Y161.103 E11.66095
G1 X126.796 Y161.424 E11.6738
G1 X126.854 Y161.502 E11.6771
G1 X127.08 Y161.748 E11.68843
G1 X127.299 Y161.926 E11.698
G1 X127.387 Y161.988 E11.70166
G1 X127.615 Y162.121 E11.71061
G1 X127.741 Y162.181 E11.71534
G1 X127.927 Y162.252 E11.7221
G1 X128.086 Y162.302 E11.72775
G1 X128.289 Y162.344 E11.73479
G1 X128.467 Y162.367 E11.74087
G1 X128.658 Y162.377 E11.74736
G1 X128.875 Y162.37 E11.75473
G1 X129.049 Y162.349 E11.76067
G1 X129.232 Y162.314 E11.767
G1 X129.392 Y162.269 E11.77263
G1 X129.623 Y162.182 E11.78101
G1 X129.736 Y162.13 E11.78523
G1 X129.938 Y162.014 E11.79313
G1 X130.053 Y161.937 E11.79783
G1 X130.245 Y161.783 E11.80618
G1 X130.338 Y161.698 E11.81045
G1 X130.584 Y161.415 E11.82317
G0 F6000 X130.939 Y161.674
G1 F1500 E7.72317
G0 F6000 X130.25 Y162.517
G0 X130.631 Y163.162
G0 X130.423 Y163.529
;TYPE:WALL-INNER
G1 F1500 E11.82317
G1 F1200 X129.982 Y163.714 E11.83908
G1 X129.55 Y163.838 E11.85403
G1 X129.126 Y163.909 E11.86832
G1 X128.67 Y163.937 E11.88352
G1 X128.59 Y163.935 E11.88618
G1 X128.269 Y163.912 E11.89689
G1 X128.106 Y163.893 E11.90234
G1 X127.84 Y163.843 E11.91135
G1 X127.584 Y163.777 E11.92014
G1 X127.397 Y163.721 E11.92663
G1 X127.141 Y163.618 E11.93581
G1 X126.985 Y163.549 E11.94148
G1 X126.753 Y163.425 E11.95023
G1 X126.613 Y163.342 E11.95565
G1 X126.372 Y163.177 E11.96536
G1 X125.961 Y162.83 E11.98325
G1 X125.638 Y162.477 E11.99916
G1 X125.375 Y162.107 E12.01426
G1 X125.163 Y161.724 E12.02882
G1 X124.995 Y161.317 E12.04347
G1 X124.869 Y160.877 E12.05869
G1 X124.837 Y160.715 E12.06418
G1 X124.797 Y160.45 E12.0731
G1 X124.783 Y160.287 E12.07854
G1 X124.775 Y160.054 E12.08629
G1 X124.782 Y159.804 E12.09461
G1 X124.803 Y159.575 E12.10226
G1 X124.841 Y159.307 E12.11126
G1 X124.869 Y159.173 E12.11581
G1 X124.948 Y158.884 E12.12578
G1 X125.136 Y158.393 E12.14327
G1 X125.361 Y157.972 E12.15914
G1 X125.627 Y157.595 E12.17449
G1 X125.926 Y157.261 E12.1894
G1 X126.247 Y156.972 E12.20377
G1 X126.609 Y156.716 E12.21851
G1 X126.733 Y156.64 E12.22335
G1 X126.966 Y156.519 E12.23208
G1 X127.144 Y156.435 E12.23863
G1 X127.373 Y156.346 E12.2468
G1 X127.585 Y156.277 E12.25421
G1 X127.784 Y156.225 E12.26106
G1 X128.109 Y156.163 E12.27206
