;FLAVOR:Marlin
;TIME:832
;Filament used: 0.429396m
;Layer height: 0.2
;MINX:159.733
;MINY:133.375
;MINZ:0.2
;MAXX:239.618
;MAXY:200.54
;MAXZ:7.4
;Generated with Cura_SteamEngine 4.6.1
M140 S50
M105
M190 S50
M104 S220
M105
M109 S220
M82 ;absolute extrusion mode
M201 X500.00 Y500.00 Z100.00 E5000.00 ;Setup machine max acceleration
M203 X500.00 Y500.00 Z10.00 E50.00 ;Setup machine max feedrate
M204 P500.00 R1000.00 T500.00 ;Setup Print/Retract/Travel acceleration
M205 X8.00 Y8.00 Z0.40 E5.00 ;Setup Jerk
M220 S100 ;Reset Feedrate
M221 S100 ;Reset Flowrate

G28 ;Home
M420 S1 Z2 ;Enable ABL using saved Mesh and Fade Height

G92 E0 ;Reset Extruder
G1 Z2.0 F3000 ;Move Z Axis up
G1 X10.1 Y20 Z0.28 F5000.0 ;Move to start position
G1 X10.1 Y200.0 Z0.28 F1500.0 E15 ;Draw the first line
G1 X10.4 Y200.0 Z0.28 F5000.0 ;Move to side a little
G1 X10.4 Y20 Z0.28 F1500.0 E30 ;Draw the second line
G92 E0 ;Reset Extruder
G1 Z2.0 F3000 ;Move Z Axis up

G92 E0
G92 E0
G1 F1500 E-4.1
;LAYER_COUNT:37
;LAYER:0
M107
G0 F6000 X207.663 Y133.816 Z0.2
;TYPE:SKIRT
G1 F1500 E0
G1 F1200 X209.213 Y133.934 E0.0517
G1 X209.917 Y133.999 E0.07522
G1 X210.456 Y134.063 E0.09327
G1 X211.268 Y134.195 E0.12063
G1 X212.596 Y134.438 E0.16553
G1 X213.285 Y134.574 E0.18889
G1 X213.818 Y134.694 E0.20706
G1 X214.263 Y134.81 E0.22236
G1 X214.683 Y134.928 E0.23687
G1 X215.848 Y135.269 E0.27724
G1 X216.565 Y135.488 E0.30218
G1 X217.136 Y135.681 E0.32223
G1 X217.693 Y135.893 E0.34205
G1 X219.14 Y136.481 E0.394
G1 X219.739 Y136.735 E0.41564
G1 X220.231 Y136.96 E0.43363
G1 X220.483 Y137.083 E0.44296
G1 X220.791 Y137.24 E0.45446
G1 X222.189 Y137.983 E0.50711
G1 X222.792 Y138.316 E0.53002
G1 X223.399 Y138.679 E0.55355
G1 X224.032 Y139.09 E0.57865
G1 X225.013 Y139.751 E0.61799
G1 X225.654 Y140.195 E0.64393
G1 X226.249 Y140.64 E0.66864
G1 X226.757 Y141.052 E0.6904
G1 X227.761 Y141.891 E0.73391
G1 X228.273 Y142.33 E0.75635
G1 X228.708 Y142.724 E0.77587
G1 X228.922 Y142.93 E0.78575
G1 X229.145 Y143.152 E0.79621
G1 X230.262 Y144.298 E0.84944
G1 X230.694 Y144.755 E0.87035
G1 X231.057 Y145.16 E0.88844
G1 X231.282 Y145.425 E0.90001
G1 X231.503 Y145.695 E0.91161
G1 X232.392 Y146.818 E0.95925
G1 X232.844 Y147.405 E0.98389
G1 X233.187 Y147.878 E1.00332
G1 X233.662 Y148.593 E1.03187
G1 X234.35 Y149.679 E1.07463
G1 X234.725 Y150.288 E1.09842
G1 X235.011 Y150.782 E1.11741
G1 X235.271 Y151.273 E1.13588
G1 X235.974 Y152.679 E1.18817
G1 X236.287 Y153.329 E1.21216
G1 X236.507 Y153.817 E1.22997
G1 X236.607 Y154.056 E1.23858
G1 X236.737 Y154.382 E1.25026
G1 X237.286 Y155.838 E1.30201
G1 X237.514 Y156.467 E1.32426
G1 X237.693 Y157.005 E1.34312
G1 X237.77 Y157.261 E1.35201
G1 X237.863 Y157.591 E1.36342
G1 X238.259 Y159.091 E1.41502
G1 X238.43 Y159.774 E1.43843
G1 X238.562 Y160.383 E1.45916
G1 X238.662 Y160.943 E1.47808
G1 X238.904 Y162.5 E1.53049
G1 X238.997 Y163.156 E1.55253
G1 X239.064 Y163.751 E1.57244
G1 X239.105 Y164.299 E1.59072
G1 X239.184 Y165.805 E1.64088
G1 X239.213 Y166.568 E1.66627
G1 X239.218 Y167.148 E1.68556
G1 X239.202 Y167.737 E1.70516
G1 X239.124 Y169.258 E1.75582
G1 X239.077 Y169.981 E1.77991
G1 X239.02 Y170.579 E1.79989
G1 X238.946 Y171.137 E1.81862
G1 X238.717 Y172.618 E1.86846
G1 X238.592 Y173.359 E1.89345
G1 X238.472 Y173.96 E1.91384
G1 X238.326 Y174.57 E1.9347
G1 X237.937 Y176.041 E1.98531
G1 X237.766 Y176.654 E2.00647
G1 X237.621 Y177.127 E2.02293
G1 X237.535 Y177.386 E2.032
G1 X237.404 Y177.759 E2.04515
G1 X236.842 Y179.25 E2.09815
G1 X236.591 Y179.887 E2.12092
G1 X236.393 Y180.355 E2.13782
G1 X236.278 Y180.609 E2.1471
G1 X236.117 Y180.949 E2.15961
G1 X235.445 Y182.295 E2.20965
G1 X235.112 Y182.941 E2.23382
G1 X234.817 Y183.474 E2.25408
G1 X234.578 Y183.871 E2.26949
G1 X234.316 Y184.289 E2.2859
G1 X233.665 Y185.312 E2.32623
G1 X233.307 Y185.858 E2.34795
G1 X232.943 Y186.377 E2.36903
G1 X232.711 Y186.684 E2.38183
G1 X232.364 Y187.13 E2.40063
G1 X231.658 Y188.022 E2.43846
G1 X231.201 Y188.582 E2.4625
G1 X230.838 Y189.002 E2.48097
G1 X230.284 Y189.593 E2.50791
G1 X229.379 Y190.521 E2.55102
G1 X228.842 Y191.056 E2.57623
G1 X228.413 Y191.46 E2.59583
G1 X227.975 Y191.842 E2.61516
G1 X226.837 Y192.793 E2.66449
G1 X226.263 Y193.259 E2.68908
G1 X225.703 Y193.682 E2.71242
G1 X225.134 Y194.08 E2.73552
G1 X224.042 Y194.814 E2.77928
G1 X223.429 Y195.214 E2.80363
G1 X222.944 Y195.512 E2.82256
G1 X222.746 Y195.626 E2.83016
G1 X222.467 Y195.78 E2.84076
G1 X221.062 Y196.53 E2.89373
G1 X220.434 Y196.852 E2.9172
G1 X219.916 Y197.1 E2.9363
G1 X219.369 Y197.338 E2.95614
G1 X217.95 Y197.916 E3.0071
G1 X217.283 Y198.176 E3.03092
G1 X216.624 Y198.407 E3.05414
G1 X215.988 Y198.604 E3.07629
G1 X214.699 Y198.978 E3.12093
G1 X214.023 Y199.164 E3.14425
G1 X213.487 Y199.296 E3.16261
G1 X213.216 Y199.355 E3.17183
G1 X212.887 Y199.42 E3.18299
G1 X211.349 Y199.702 E3.23499
G1 X210.675 Y199.815 E3.25772
G1 X210.151 Y199.888 E3.27532
G1 X209.907 Y199.916 E3.28349
G1 X209.537 Y199.952 E3.29585
G1 X207.991 Y200.072 E3.34743
G1 X207.265 Y200.118 E3.37162
G1 X206.698 Y200.138 E3.39049
G1 X206.435 Y200.14 E3.39924
G1 X206.105 Y200.137 E3.41022
G1 X204.529 Y200.097 E3.46265
G1 X203.86 Y200.07 E3.48492
G1 X203.321 Y200.034 E3.50289
G1 X202.48 Y199.942 E3.53103
G1 X201.166 Y199.771 E3.5751
G1 X200.446 Y199.667 E3.59929
G1 X199.777 Y199.548 E3.62189
G1 X199.103 Y199.402 E3.64483
G1 X197.829 Y199.099 E3.68839
G1 X197.114 Y198.919 E3.71291
G1 X196.596 Y198.774 E3.7308
G1 X195.79 Y198.513 E3.75898
G1 X194.525 Y198.071 E3.80355
G1 X193.901 Y197.845 E3.82562
G1 X193.226 Y197.573 E3.84983
G1 X192.597 Y197.291 E3.87275
G1 X191.437 Y196.748 E3.91535
G1 X190.507 Y196.292 E3.9498
G1 X190.098 Y196.077 E3.96517
G1 X188.351 Y195.135 E4.03119
G1 X186.019 Y193.962 E4.11801
G1 X183.764 Y192.906 E4.20083
G1 X181.4 Y191.88 E4.28654
G1 X179.036 Y190.93 E4.37128
G1 X176.706 Y190.074 E4.45384
G1 X174.272 Y189.254 E4.53926
G1 X171.594 Y188.438 E4.63238
G1 X170.701 Y188.18 E4.66329
G1 X170.209 Y188.025 E4.68045
G1 X169.91 Y187.922 E4.69097
G1 X169.347 Y187.709 E4.71099
G1 X169.08 Y187.599 E4.72059
G1 X168.501 Y187.339 E4.7417
G1 X168.312 Y187.247 E4.74869
G1 X167.724 Y186.937 E4.7708
G1 X167.403 Y186.754 E4.78309
G1 X166.878 Y186.434 E4.80354
G1 X166.659 Y186.291 E4.81224
G1 X165.938 Y185.773 E4.84177
G1 X165.724 Y185.605 E4.85082
G1 X165.45 Y185.383 E4.86255
G1 X165.177 Y185.153 E4.87442
G1 X164.391 Y184.416 E4.91026
G1 X163.985 Y183.986 E4.92993
G1 X163.772 Y183.75 E4.9405
G1 X163.06 Y182.866 E4.97825
G1 X162.777 Y182.472 E4.99439
G1 X162.171 Y181.523 E5.03184
G1 X161.883 Y181.011 E5.05138
G1 X161.34 Y179.892 E5.09275
G1 X161.147 Y179.423 E5.10961
G1 X160.851 Y178.606 E5.13852
G1 X160.759 Y178.314 E5.1487
G1 X160.549 Y177.543 E5.17528
G1 X160.489 Y177.283 E5.18415
G1 X160.365 Y176.674 E5.20482
G1 X160.244 Y175.875 E5.2317
G1 X160.213 Y175.597 E5.241
G1 X160.167 Y175.05 E5.25926
G1 X160.15 Y174.753 E5.26916
G1 X160.133 Y174.126 E5.29002
G1 X160.134 Y173.896 E5.29767
G1 X160.162 Y173.183 E5.3214
G1 X160.211 Y172.526 E5.34331
G1 X160.368 Y169.903 E5.43071
G1 X160.446 Y167.38 E5.51467
G1 X160.454 Y164.855 E5.59865
G1 X160.362 Y161.624 E5.70615
G1 X160.317 Y160.625 E5.73942
G1 X160.304 Y160.026 E5.75934
G1 X160.331 Y159.156 E5.78829
G1 X160.375 Y158.559 E5.8082
G1 X160.489 Y157.611 E5.83996
G1 X160.529 Y157.374 E5.84796
G1 X160.71 Y156.526 E5.8768
G1 X160.809 Y156.142 E5.88998
G1 X161.08 Y155.257 E5.92077
G1 X161.275 Y154.711 E5.94005
G1 X161.641 Y153.822 E5.97203
G1 X161.756 Y153.576 E5.98106
G1 X162.084 Y152.934 E6.00504
G1 X162.231 Y152.67 E6.01509
G1 X162.688 Y151.926 E6.04413
G1 X162.962 Y151.52 E6.06042
G1 X163.638 Y150.628 E6.09765
G1 X163.934 Y150.279 E6.11287
G1 X164.403 Y149.764 E6.13603
G1 X164.62 Y149.541 E6.14638
G1 X165.225 Y148.968 E6.1741
G1 X165.46 Y148.763 E6.18447
G1 X166.14 Y148.218 E6.21345
G1 X166.431 Y148.005 E6.22545
G1 X166.94 Y147.656 E6.24598
G1 X167.234 Y147.467 E6.2576
G1 X168.206 Y146.915 E6.29478
G1 X168.616 Y146.711 E6.31001
G1 X169.199 Y146.444 E6.33134
G1 X169.46 Y146.334 E6.34076
G1 X170.145 Y146.073 E6.36514
G1 X170.546 Y145.937 E6.37922
G1 X170.848 Y145.84 E6.38977
G1 X172.135 Y145.449 E6.43451
G1 X172.621 Y145.307 E6.45135
G1 X175.089 Y144.509 E6.53762
G1 X177.448 Y143.673 E6.62086
G1 X179.824 Y142.755 E6.70558
G1 X182.169 Y141.77 E6.79018
G1 X184.468 Y140.727 E6.87414
G1 X186.755 Y139.612 E6.95877
G1 X189.238 Y138.309 E7.05203
G1 X190.581 Y137.582 E7.10283
G1 X191.331 Y137.213 E7.13063
G1 X192.52 Y136.658 E7.17427
G1 X193.181 Y136.36 E7.19839
G1 X193.808 Y136.102 E7.22094
G1 X194.462 Y135.861 E7.24412
G1 X195.752 Y135.414 E7.28953
G1 X196.388 Y135.203 E7.31182
G1 X196.926 Y135.041 E7.3305
G1 X197.191 Y134.969 E7.33964
G1 X197.514 Y134.887 E7.35072
G1 X199.036 Y134.527 E7.40274
G1 X199.679 Y134.384 E7.42465
G1 X200.384 Y134.253 E7.4485
G1 X201.091 Y134.149 E7.47227
G1 X202.374 Y133.984 E7.51529
G1 X203.098 Y133.901 E7.53953
G1 X203.772 Y133.847 E7.56202
G1 X204.453 Y133.816 E7.58469
G1 X205.836 Y133.782 E7.6307
G1 X206.496 Y133.775 E7.65266
G1 X207.058 Y133.784 E7.67135
G1 X207.663 Y133.816 E7.6915
G0 F6000 X207.693 Y133.417
G1 F1200 X209.25 Y133.536 E7.74344
G1 X209.954 Y133.601 E7.76695
G1 X210.514 Y133.668 E7.78571
G1 X211.339 Y133.801 E7.81351
G1 X212.674 Y134.046 E7.85865
G1 X213.363 Y134.182 E7.88201
G1 X213.916 Y134.306 E7.90086
G1 X214.371 Y134.425 E7.9165
G1 X214.795 Y134.544 E7.93115
G1 X215.964 Y134.886 E7.97166
G1 X216.681 Y135.105 E7.99659
G1 X217.275 Y135.306 E8.01745
G1 X217.843 Y135.522 E8.03766
G1 X219.296 Y136.113 E8.08983
G1 X219.895 Y136.367 E8.11147
G1 X220.407 Y136.6 E8.13018
G1 X220.659 Y136.723 E8.13951
G1 X220.979 Y136.886 E8.15145
G1 X222.382 Y137.633 E8.20432
G1 X222.985 Y137.966 E8.22723
G1 X223.616 Y138.344 E8.2517
G1 X224.255 Y138.758 E8.27702
G1 X225.241 Y139.422 E8.31656
G1 X225.882 Y139.866 E8.34249
G1 X226.5 Y140.328 E8.36816
G1 X227.013 Y140.745 E8.39014
G1 X228.022 Y141.587 E8.43385
G1 X228.534 Y142.026 E8.45628
G1 X228.985 Y142.436 E8.47656
G1 X229.432 Y142.873 E8.49735
G1 X230.553 Y144.023 E8.55076
G1 X230.985 Y144.48 E8.57168
G1 X231.362 Y144.901 E8.59048
G1 X231.587 Y145.166 E8.60204
G1 X231.817 Y145.446 E8.61409
G1 X232.709 Y146.574 E8.66192
G1 X233.161 Y147.161 E8.68656
G1 X233.517 Y147.653 E8.70676
G1 X233.999 Y148.378 E8.73572
G1 X234.691 Y149.469 E8.77869
G1 X235.066 Y150.078 E8.80247
G1 X235.363 Y150.592 E8.82222
G1 X235.475 Y150.799 E8.83005
G1 X235.628 Y151.094 E8.8411
G1 X236.334 Y152.505 E8.89358
G1 X236.647 Y153.155 E8.91757
G1 X236.876 Y153.663 E8.93611
G1 X236.976 Y153.902 E8.94472
G1 X237.111 Y154.241 E8.95686
G1 X237.663 Y155.702 E9.0088
G1 X237.891 Y156.331 E9.03106
G1 X238.076 Y156.89 E9.05064
G1 X238.153 Y157.146 E9.05953
G1 X238.25 Y157.489 E9.07139
G1 X238.647 Y158.994 E9.12316
G1 X238.818 Y159.677 E9.14657
G1 X238.956 Y160.31 E9.16812
G1 X239.058 Y160.882 E9.18745
G1 X239.3 Y162.444 E9.24002
G1 X239.393 Y163.1 E9.26206
G1 X239.462 Y163.718 E9.28274
G1 X239.504 Y164.278 E9.30142
G1 X239.583 Y165.789 E9.35174
G1 X239.612 Y166.552 E9.37714
G1 X239.618 Y167.156 E9.39723
G1 X239.613 Y167.42 E9.40601
G1 X239.601 Y167.757 E9.41723
G1 X239.523 Y169.284 E9.46808
G1 X239.476 Y170.007 E9.49218
G1 X239.417 Y170.629 E9.51296
G1 X239.384 Y170.894 E9.52184
G1 X239.341 Y171.198 E9.53205
G1 X239.111 Y172.684 E9.58207
G1 X238.986 Y173.425 E9.60706
G1 X238.861 Y174.05 E9.62826
G1 X238.713 Y174.672 E9.64952
G1 X238.322 Y176.148 E9.70031
G1 X238.151 Y176.761 E9.72148
G1 X238.001 Y177.253 E9.73858
G1 X237.915 Y177.512 E9.74766
G1 X237.778 Y177.9 E9.76135
G1 X237.214 Y179.397 E9.81455
G1 X236.963 Y180.034 E9.83733
G1 X236.757 Y180.52 E9.85488
G1 X236.642 Y180.774 E9.86416
G1 X236.475 Y181.127 E9.87714
G1 X235.801 Y182.478 E9.92736
G1 X235.468 Y183.124 E9.95153
G1 X235.16 Y183.679 E9.97264
G1 X234.917 Y184.084 E9.98835
G1 X234.654 Y184.503 E10.00481
G1 X233.999 Y185.531 E10.04535
G1 X233.641 Y186.077 E10.06707
G1 X233.263 Y186.617 E10.08899
G1 X233.027 Y186.93 E10.10203
G1 X232.678 Y187.378 E10.12091
G1 X231.967 Y188.275 E10.15898
G1 X231.51 Y188.835 E10.18303
G1 X231.134 Y189.271 E10.20217
G1 X230.571 Y189.872 E10.22956
G1 X229.661 Y190.804 E10.27289
G1 X229.124 Y191.339 E10.2981
G1 X228.678 Y191.759 E10.31848
G1 X228.232 Y192.149 E10.33818
G1 X227.089 Y193.103 E10.3877
G1 X226.515 Y193.569 E10.41229
G1 X225.933 Y194.01 E10.43658
G1 X225.358 Y194.412 E10.45991
G1 X224.261 Y195.149 E10.50387
G1 X223.648 Y195.549 E10.52821
G1 X223.144 Y195.858 E10.54788
G1 X222.946 Y195.972 E10.55548
G1 X222.656 Y196.133 E10.56651
G1 X221.244 Y196.886 E10.61973
G1 X220.616 Y197.208 E10.64321
G1 X220.078 Y197.465 E10.66304
G1 X219.52 Y197.708 E10.68328
G1 X218.095 Y198.288 E10.73445
G1 X217.428 Y198.548 E10.75826
G1 X216.744 Y198.788 E10.78237
G1 X216.1 Y198.988 E10.8048
G1 X214.805 Y199.363 E10.84964
G1 X214.129 Y199.549 E10.87296
G1 X213.572 Y199.686 E10.89204
G1 X213.301 Y199.745 E10.90126
G1 X212.959 Y199.814 E10.91287
G1 X211.415 Y200.096 E10.96507
G1 X210.741 Y200.209 E10.9878
G1 X210.196 Y200.286 E11.00611
G1 X209.952 Y200.314 E11.01427
G1 X209.568 Y200.351 E11.02711
G1 X208.016 Y200.471 E11.07888
G1 X207.29 Y200.517 E11.10308
G1 X206.701 Y200.538 E11.12268
G1 X206.438 Y200.54 E11.13143
G1 X206.095 Y200.537 E11.14283
G1 X204.513 Y200.496 E11.19547
G1 X203.844 Y200.469 E11.21774
G1 X203.284 Y200.432 E11.2364
G1 X202.429 Y200.339 E11.26501
G1 X201.109 Y200.167 E11.30928
G1 X200.389 Y200.063 E11.33348
G1 X199.694 Y199.939 E11.35696
G1 X199.012 Y199.791 E11.38017
G1 X197.731 Y199.487 E11.42396
G1 X197.016 Y199.307 E11.44848
G1 X196.478 Y199.157 E11.46706
G1 X195.659 Y198.891 E11.4957
G1 X194.388 Y198.447 E11.54048
G1 X193.764 Y198.221 E11.56255
G1 X193.063 Y197.939 E11.58769
G1 X192.427 Y197.654 E11.61087
G1 X191.262 Y197.107 E11.65367
G1 X190.323 Y196.646 E11.68846
G1 X189.908 Y196.429 E11.70404
G1 X188.147 Y195.479 E11.77059
G1 X185.872 Y194.335 E11.85529
G1 X183.584 Y193.263 E11.93932
G1 X181.258 Y192.254 E12.02365
G1 X178.915 Y191.313 E12.10763
G1 X176.545 Y190.441 E12.19162
G1 X174.165 Y189.64 E12.27515
G1 X171.513 Y188.831 E12.36736
G1 X170.59 Y188.565 E12.39931
G1 X170.079 Y188.403 E12.41714
G1 X169.78 Y188.3 E12.42766
G1 X169.194 Y188.079 E12.44849
G1 X168.927 Y187.969 E12.4581
G1 X168.326 Y187.699 E12.48001
G1 X168.137 Y187.607 E12.487
G1 X167.526 Y187.285 E12.50997
G1 X167.205 Y187.102 E12.52226
G1 X166.66 Y186.768 E12.54352
G1 X166.441 Y186.625 E12.55222
G1 X165.691 Y186.088 E12.5829
G1 X165.477 Y185.92 E12.59195
G1 X165.192 Y185.689 E12.60415
G1 X164.919 Y185.459 E12.61602
G1 X164.102 Y184.693 E12.65327
G1 X163.91 Y184.493 E12.6625
G1 X163.475 Y184.018 E12.68392
G1 X162.735 Y183.1 E12.72314
G1 X162.452 Y182.706 E12.73927
G1 X161.822 Y181.719 E12.77822
G1 X161.534 Y181.207 E12.79775
G1 X160.971 Y180.044 E12.84073
G1 X160.778 Y179.575 E12.8576
G1 X160.47 Y178.726 E12.88764
G1 X160.378 Y178.434 E12.89782
G1 X160.159 Y177.633 E12.92544
G1 X160.099 Y177.373 E12.93431
G1 X159.972 Y176.75 E12.95546
G1 X159.846 Y175.92 E12.98338
G1 X159.815 Y175.642 E12.99269
G1 X159.767 Y175.073 E13.01168
G1 X159.75 Y174.776 E13.02157
G1 X159.733 Y174.124 E13.04327
G1 X159.734 Y173.894 E13.05092
G1 X159.763 Y173.153 E13.07558
G1 X159.814 Y172.468 E13.09843
G1 X159.967 Y169.904 E13.18386
G1 X160.046 Y167.366 E13.26831
G1 X160.054 Y164.865 E13.3515
G1 X159.963 Y161.654 E13.45834
G1 X159.917 Y160.643 E13.492
G1 X159.904 Y160.03 E13.51239
G1 X159.932 Y159.127 E13.54244
G1 X159.976 Y158.53 E13.56235
G1 X160.095 Y157.545 E13.59535
G1 X160.135 Y157.308 E13.60334
G1 X160.323 Y156.426 E13.63334
G1 X160.422 Y156.042 E13.64653
G1 X160.704 Y155.123 E13.6785
G1 X160.899 Y154.577 E13.69778
G1 X161.278 Y153.653 E13.731
G1 X161.393 Y153.407 E13.74003
G1 X161.735 Y152.739 E13.76499
G1 X161.882 Y152.475 E13.77504
G1 X162.357 Y151.702 E13.80522
G1 X162.631 Y151.296 E13.82151
G1 X163.333 Y150.37 E13.86016
G1 X163.629 Y150.021 E13.87538
G1 X164.116 Y149.485 E13.89947
G1 X164.333 Y149.262 E13.90982
G1 X164.962 Y148.666 E13.93864
G1 X165.197 Y148.461 E13.94901
G1 X165.904 Y147.896 E13.97911
G1 X166.195 Y147.683 E13.9911
G1 X166.724 Y147.32 E14.01244
G1 X167.018 Y147.131 E14.02407
